src/assets/icons/weeks,simple,33.svg

<svg width="48" height="48" viewBox="0 0 48 48" fill="none" xmlns="http://www.w3.org/2000/svg">
<rect opacity="0.2" x="5" y="5" width="38" height="38" rx="4" fill="black"/>
<path d="M5 13C5 9.22876 5 7.34315 6.17157 6.17157C7.34315 5 9.22876 5 13 5H35C38.7712 5 40.6569 5 41.8284 6.17157C43 7.34315 43 9.22876 43 13V15H5V13Z" fill="black"/>
<path d="M16.0462 38.2386C19.9666 38.2386 22.7706 36.0824 22.7621 33.0994C22.7706 30.9261 21.3899 29.375 18.8246 29.0511V28.9148C20.7763 28.5653 22.1229 27.1847 22.1143 25.2244C22.1229 22.4716 19.7109 20.3068 16.0973 20.3068C12.5178 20.3068 9.82457 22.4034 9.77344 25.4205H13.3104C13.353 24.0909 14.5717 23.2301 16.0803 23.2301C17.5717 23.2301 18.5689 24.1335 18.5604 25.446C18.5689 26.8182 17.4013 27.7472 15.7223 27.7472H14.0945V30.4574H15.7223C17.6996 30.4574 18.9354 31.446 18.9268 32.8523C18.9354 34.2415 17.7422 35.196 16.0547 35.196C14.4268 35.196 13.2081 34.3438 13.1399 33.0653H9.42401C9.48366 36.1165 12.2109 38.2386 16.0462 38.2386ZM31.8665 38.2386C35.7869 38.2386 38.5909 36.0824 38.5824 33.0994C38.5909 30.9261 37.2102 29.375 34.6449 29.0511V28.9148C36.5966 28.5653 37.9432 27.1847 37.9347 25.2244C37.9432 22.4716 35.5312 20.3068 31.9176 20.3068C28.3381 20.3068 25.6449 22.4034 25.5938 25.4205H29.1307C29.1733 24.0909 30.392 23.2301 31.9006 23.2301C33.392 23.2301 34.3892 24.1335 34.3807 25.446C34.3892 26.8182 33.2216 27.7472 31.5426 27.7472H29.9148V30.4574H31.5426C33.5199 30.4574 34.7557 31.446 34.7472 32.8523C34.7557 34.2415 33.5625 35.196 31.875 35.196C30.2472 35.196 29.0284 34.3438 28.9602 33.0653H25.2443C25.304 36.1165 28.0312 38.2386 31.8665 38.2386Z" fill="black"/>
</svg>

<svg xmlns="http://www.w3.org/2000/svg" width="48" height="48" fill="none" viewBox="0 0 48 48">
  <rect width="38" height="38" x="5" y="5" fill="#000" opacity=".2" rx="4"/>
  <path fill="#000" d="M5 13c0-3.771 0-5.657 1.172-6.828C7.343 5 9.229 5 13 5h22c3.771 0 5.657 0 6.828 1.172C43 7.343 43 9.229 43 13v2H5v-2zM16.046 38.239c3.92 0 6.725-2.157 6.716-5.14.009-2.173-1.372-3.724-3.937-4.048v-.136c1.951-.35 3.298-1.73 3.29-3.69.008-2.753-2.404-4.918-6.018-4.918-3.58 0-6.272 2.096-6.324 5.114h3.537c.043-1.33 1.262-2.19 2.77-2.19 1.492 0 2.489.902 2.48 2.215.009 1.372-1.159 2.301-2.838 2.301h-1.627v2.71h1.627c1.978 0 3.213.989 3.205 2.395.008 1.39-1.185 2.344-2.872 2.344-1.628 0-2.847-.852-2.915-2.13H9.424c.06 3.05 2.787 5.173 6.622 5.173zm15.82 0c3.92 0 6.725-2.157 6.716-5.14.009-2.173-1.372-3.724-3.937-4.048v-.136c1.952-.35 3.298-1.73 3.29-3.69.008-2.753-2.404-4.918-6.017-4.918-3.58 0-6.273 2.096-6.324 5.114h3.537c.042-1.33 1.261-2.19 2.77-2.19 1.491 0 2.488.902 2.48 2.215.008 1.372-1.16 2.301-2.838 2.301h-1.628v2.71h1.628c1.977 0 3.213.989 3.204 2.395.009 1.39-1.184 2.344-2.872 2.344-1.628 0-2.847-.852-2.915-2.13h-3.716c.06 3.05 2.787 5.173 6.622 5.173z"/>
</svg>
